icon-svg/rooms-pool.svg

<?xml version="1.0" encoding="UTF-8"?>
<svg width="32px" height="32px" viewBox="0 0 32 32" version="1.1" fill="#44739e" xmlns="http://www.w3.org/2000/svg" xmlns:xlink="http://www.w3.org/1999/xlink">
            <path d="M27.996,18.963 L28,18.963 L28,22.546 C27.878,22.456 27.774,22.368 27.709,22.305 C27.051,21.642 25.968,21.044 24.766,21.032 C24.756,21.032 24.745,21.033 24.735,21.033 C24.613,21.033 24.489,21.037 24.364,21.049 C23.547,21.131 22.694,21.499 21.893,22.305 C20.528,23.68 19.259,22.647 18.907,22.305 C17.739,21.127 15.228,20.155 13.093,22.305 C11.728,23.68 10.458,22.647 10.108,22.305 C9.449,21.641 8.365,21.044 7.163,21.032 C6.229,21.021 5.223,21.365 4.29,22.305 C4.193,22.404 4.097,22.464 4,22.539 L4,18.963 L4.004,18.963 C4.01,18.712 4.104,18.464 4.293,18.273 C5.513,17.044 6.856,16.837 8,17.104 L8,7 C8,6.448 7.552,6 7,6 C6.448,6 6,6.448 6,7 C6,7.552 5.553,8 5,8 C4.447,8 4,7.552 4,7 C4,5.345 5.346,4 7,4 C8.655,4 10,5.345 10,7 L10,9 L17,9 L17,7 C17,6.448 16.552,6 16,6 C15.448,6 15,6.448 15,7 C15,7.552 14.553,8 14,8 C13.447,8 13,7.552 13,7 C13,5.345 14.346,4 16,4 C17.655,4 19,5.345 19,7 L19,18.354 C19.256,18.583 19.76,18.95 20.402,18.963 L20.473,18.963 C20.907,18.953 21.393,18.777 21.893,18.273 C24.026,16.125 26.537,17.094 27.707,18.273 C27.897,18.464 27.99,18.712 27.996,18.963 Z M13.093,18.273 C14.385,16.972 15.814,16.818 17,17.158 L17,16 L10,16 L10,18.173 C10.035,18.207 10.074,18.24 10.108,18.273 C10.322,18.483 10.885,18.949 11.602,18.963 L11.673,18.963 C12.107,18.953 12.593,18.777 13.093,18.273 Z M10,14 L17,14 L17,11 L10,11 L10,14 Z M26.2981,23.7066 C26.3001,23.7086 26.3041,23.7096 26.3061,23.7116 C26.3961,23.8026 27.0341,24.4166 28.0001,24.7616 L28.0001,27.9996 L4.0001,27.9996 L4.0001,24.7876 C4.6001,24.5836 5.1741,24.2366 5.6921,23.7126 C5.6961,23.7076 5.7021,23.7066 5.7071,23.7016 C6.0471,23.3546 6.3811,23.1596 6.6961,23.0666 C7.6451,22.7916 8.4261,23.4406 8.6951,23.7066 C8.6991,23.7106 8.7041,23.7116 8.7081,23.7156 C8.8071,23.8136 9.4631,24.4496 10.4591,24.7876 C11.9011,25.2796 13.3391,24.8926 14.5071,23.7016 C15.8731,22.3116 17.1431,23.3546 17.4931,23.7016 C17.5671,23.7756 18.2391,24.4416 19.2591,24.7876 C19.6671,24.9276 20.0741,24.9946 20.4761,24.9946 C21.4901,24.9946 22.4641,24.5576 23.3001,23.7076 C23.3031,23.7046 23.3061,23.7046 23.3091,23.7016 C23.4791,23.5276 23.6481,23.3926 23.8141,23.2886 C24.9731,22.5646 25.9851,23.3966 26.2981,23.7066 Z"></path>
</svg>

<svg xmlns="http://www.w3.org/2000/svg" fill="#44739e" viewBox="0 0 24 24"><path d="M27.996 18.963H28v3.583c-.122-.09-.226-.178-.291-.241-.658-.663-1.741-1.261-2.943-1.273-.01 0-.021.001-.031.001-.122 0-.246.004-.371.016-.817.082-1.67.45-2.471 1.256-1.365 1.375-2.634.342-2.986 0-1.168-1.178-3.679-2.15-5.814 0-1.365 1.375-2.635.342-2.985 0-.659-.664-1.743-1.261-2.945-1.273-.934-.011-1.94.333-2.873 1.273-.097.099-.193.159-.29.234v-3.576h.004c.006-.251.1-.499.289-.69 1.22-1.229 2.563-1.436 3.707-1.169V7c0-.552-.448-1-1-1s-1 .448-1 1-.447 1-1 1-1-.448-1-1c0-1.655 1.346-3 3-3 1.655 0 3 1.345 3 3v2h7V7c0-.552-.448-1-1-1s-1 .448-1 1-.447 1-1 1-1-.448-1-1c0-1.655 1.346-3 3-3 1.655 0 3 1.345 3 3v11.354c.256.229.76.596 1.402.609h.071c.434-.01.92-.186 1.42-.69 2.133-2.148 4.644-1.179 5.814 0 .19.191.283.439.289.69m-14.903-.69c1.292-1.301 2.721-1.455 3.907-1.115V16h-7v2.173c.035.034.074.067.108.1.214.21.777.676 1.494.69h.071c.434-.01.92-.186 1.42-.69M10 14h7v-3h-7zm16.2981 9.7066c.002.002.006.003.008.005.09.091.728.705 1.694 1.05v3.238h-24v-3.212c.6-.204 1.174-.551 1.692-1.075.004-.005.01-.006.015-.011.34-.347.674-.542.989-.635.949-.275 1.73.374 1.999.64.004.004.009.005.013.009.099.098.755.734 1.751 1.072 1.442.492 2.88.105 4.048-1.086 1.366-1.39 2.636-.347 2.986 0 .074.074.746.74 1.766 1.086.408.14.815.207 1.217.207 1.014 0 1.988-.437 2.824-1.287.003-.003.006-.003.009-.006.17-.174.339-.309.505-.413 1.159-.724 2.171.108 2.484.418"/></svg>
